X:200
T: DER ABT IST NICHT ZU HAUSE
N: K2562A
O: Europa, Mitteleuropa, Deutschland, Thueringen
R: Kinder - Lied, Gesellschafts - Spiel
M: 2/4
L: 1/8
K: G
D | GGGG | G2D
D | BBBB | B2Gz |
ddde | dcc2 |
BBBc | BAG2

